!!!OTL: Ritter und Magd Es fing ein Graf zum spielen an
!!!ARE: Europa, Suedosteuropa, Jugoslavija, Gottschee
!!!YOR: 3, S. 60
!!    ????
!!!SCT: Q0055Y
!!!YEM: Copyright 1995, estate of Helmut Schaffrath.
**kern
*ICvox
*Ivox
*M6/8
*k[]
*C:
{8G
=1
4c
8B
4c
8d
=2
4e
8f
4e}
{8c
=3
4d
8c
4d
8e
=4
4.d
4c}
{8G
=5
4c
8B
4c
8d
=6
4e
8f
4e}
{8c
=7
4d
8c
4d
8e
=8
4.d
4c}
==
!!!AGN: Ballade, Betrug, Schwangerschaft, Tod, Selbstmord, Herr und Magd
!! Grundton in der zweigestrichenen Oktave.
!!    Dritte Zeile = Refrain auf sinnfreie Silben.
!!!ONB: ESAC (Essen Associative Code) Database: BALLADE
!!!AMT: compound duple
!!!AIN: vox
!!!EED: Helmut Schaffrath
!!!EEV: 1.0
*-
